X:1
T: Maggie Brown's Favourite
C:
R:Jig
Q:180
K:G
M:6/8
L:1/16
g2|d2B2G2 G3AB2|E4E2 E4c2|A2F2D2 D2E2F2|G4G2 G4g2|d2B2G2 B3cd2|E4E2 E4c2|A2F2D2 D2E2F2|G6G4g2|
d2B2G2 G3AB2|E4E2 E4c2|A2F2D2 D2E2F2|G4G2 G4g2|d2B2G2 B3cd2|E4E2 E4c2|A2F2D2 D2E2F2|G6G4ga|
b2g2b2 a2f2d2|e2f2g2 g3fe2|d2B2g2 d2B2G2|A2F2D2 D4ga|b2g2b2 a2f2d2|e2f2g2 g2f2e2|f2a2f2 g2e2^c2|d4d2 d2e2=f2|
e2c2e2 d2B2d2|c2a2c2 B2g2B2|A2c2e2 d2B2G2|F2A2F2 D2E2F2|G2A2B2 E2F2G2|A2B2c2 d2e2f2|g2d2B2 c2A2F2|G6G4||
